X:1
T:Title
%%score { ( 1 3 4 ) | ( 2 5 ) }
L:1/8
M:4/4
K:Bb
V:1 treble nm="Grand Piano"
V:3 treble 
V:4 treble 
V:2 bass 
V:5 bass 
V:1
 z4 z2[Q:1/4=100] DE | [DF]2 (3FfF [Gdg]2 (3GgG | [Fdf]2 [dfd']4 [DB][Ec] | z4 [EAc]4 | %4
[M:3/4] [DFB]6[K:bass] |[M:1/4][K:treble][Q:1/4=110] DE |[M:4/4] [DF]4 [DG]4 | %7
 z2 [Dd]4[K:bass][K:treble] D2 | [DB]4 [DG]4 | [EA]6[K:bass][K:treble] z2 | [A,EG]4 [A,EA]4 | %11
 [A,EG]2 [EAe]4 [EG][EA] | [EAd]4 [Ec]4 | [DF]6 DE | [DF]4 [DG]4 | z2 [Dd]4[K:bass][K:treble] D2 | %16
 [DB]4 [D_ABd]4 | [EGBe]6 z2 | [EGB]4 [EG]4 | [DF]2 [Dd]4 Bc | z4 [EAc]4 | [DFB]6[K:bass] z2 | %22
 [DF]2 [DF]4 [Dd]2 | [Dc]2 [DB]4 [DG][DF] | [EA]4[K:bass] [D_A]4 | [EA]6[K:treble] z2 | F2 F4 e2 | %27
 d2 c4 GB | A4 [CE]4 | [_DG]4 z4 | [DF]2 [DF]4 [Dd]2 | [Ec]2 [DB]4 [DG][DF] | z2 B,2 G2- [Gc]2 | %33
[M:9/8] [^Fd]6- [Fd] z z |[M:4/4] [Ge]2 [Ge]4 B2 |[M:5/4] _d2 d6 cB |[M:4/4] d4 c4 | %37
[M:3/4] [DB]6 |] %38
V:2
 z4 z2 B,C | [B,,,B,,]2 [F,B,D]2 [B,,B,]2 [F,B,D]2 | [B,,B,]2 [F,,F,]2 [D,,D,]2 [G,,G,][^F,,^F,] | %3
 [F,,F,]2 [G,,G,]2 [A,,A,]2 F,,2 |[M:3/4] B,,2 F,,2 B,,,2 |[M:1/4] B,C | %6
[M:4/4] [B,,B,]2 [F,,F,]2 [B,,B,]2 [F,,F,]2 | [B,,B,]2 [F,,F,]2 z2 [F,,F,]2 | %8
 [B,,B,]2 [F,,F,]2 [B,,B,]2 [F,,F,]2 | [C,,C,]2 F,,2 C,,2 [F,,F,]2 | %10
 [C,,C,]2 [F,,F,]2 [C,,C,]2 [F,,F,]2 | [C,,C,]2 [F,,F,]2 [C,,C,]2 [F,,F,]2 | %12
 [A,,A,]2 [F,,F,]2 [A,,A,]2 [F,,F,]2 | [B,,B,]2 F,2 B,,2 B,C | %14
 [B,,B,]2 [F,,F,]2 [B,,B,]2 [F,,F,]2 | [B,,B,]2 [F,,F,]2 z2 [^F,,^F,]2 | %16
 [G,,G,]2 [G,,G,]2 [F,,F,]2 [F,,F,]2 | [E,,E,]2 B,,2 E,,2 z2 | %18
 [E,,E,]2 [G,,G,]2 [B,,B,]2 [E,,E,]2 | [B,,B,]2 [F,,F,]2 [B,,B,]2 [G,,G,][^F,,^F,] | %20
 [F,,F,]2 [G,,G,]2 [A,,A,]2 F,,2 | B,,2 F,,2 B,,,2 z2 | [B,,B,]2 [B,,B,]4 [B,,F,]2 | %23
 [B,,F,]2 [B,,F,]4 [B,,F,][B,,F,] | [C,F,]2 z2 [=B,,F,]2 z2 | [C,F,]2 C,2 C,2 z2 | %26
 [F,A,E]2 [F,A,E]4 [F,A,E]2 | [F,A,E]2 [F,A,E]4 [F,CE][F,CE] | E4 z4 | B,,2 B,,2 z[K:treble] =EFG | %30
 [B,,B,]2 [B,,B,]4 [B,,F,]2 | [B,,F,]2 [B,,F,]4 [B,,B,][B,,B,] | [E,B,]2 E,2 E,2 [E,G,]2 | %33
[M:9/8] [D,A,]2 D,- D, D,2- D, z z |[M:4/4] [C,C]2 [C,C]4 [G,B,E]2 | %35
[M:5/4] [G,B,=E]2 [G,B,E]6 [G,B,E][G,B,E] |[M:4/4] [F,B,F]4 [F,A,E]4 |[M:3/4] [B,,F,B,]6 |] %38
V:3
 x8 | x8 | x8 | [FBd]4 z2 F,2 |[M:3/4] B,2[K:bass] F,2 B,,2 |[M:1/4][K:treble] x2 |[M:4/4] x8 | %7
 [DF]2 z2[K:bass] [B,,B,]2[K:treble] dc | x8 | z2[K:bass] F,2 C,2[K:treble] EF | x8 | x8 | x8 | %13
 x8 | x8 | [DF]2 z2[K:bass] [B,,B,]2[K:treble] dc | x8 | z4 E,2 GA | x8 | x8 | [FBd]4 z2 F,2 | %21
 B,2[K:bass] F,2 B,,2 z2 | x8 | x8 | z2[K:bass] [C,F,]2 z2 [=B,,F,]2 | z2 F,2 z[K:treble] BAG | %26
 x8 | x8 | z2 C2 A,2 A,2 | B,2 B,2 [B,=DF]2 z2 | x8 | x8 | [EG]4 [B,B]2 z2 | %33
[M:9/8] z2 A,- A, A,2- A, z z |[M:4/4] x8 |[M:5/4] x10 |[M:4/4] x8 |[M:3/4] x6 |] %38
V:4
 x8 | x8 | x8 | x8 |[M:3/4] x2[K:bass] x4 |[M:1/4][K:treble] x2 |[M:4/4] x8 | %7
 x4[K:bass] x2[K:treble] x2 | x8 | x2[K:bass] x4[K:treble] x2 | x8 | x8 | x8 | x8 | x8 | %15
 x4[K:bass] x2[K:treble] x2 | x8 | x8 | x8 | x8 | x8 | x2[K:bass] x6 | x8 | x8 | x2[K:bass] x6 | %25
 z4 F,2[K:treble] z2 | x8 | x8 | x8 | x8 | x8 | x8 | x8 |[M:9/8] x9 |[M:4/4] x8 |[M:5/4] x10 | %36
[M:4/4] x8 |[M:3/4] x6 |] %38
V:5
 x8 | x8 | x8 | x8 |[M:3/4] x6 |[M:1/4] x2 |[M:4/4] x8 | x8 | x8 | x8 | x8 | x8 | x8 | x8 | x8 | %15
 x8 | x8 | x8 | x8 | x8 | x8 | x8 | x8 | x8 | x8 | x8 | x8 | x8 | [F,C]2 F,2 F,2 F,2 | %29
 z4 B,,2[K:treble] z2 | x8 | x8 | x8 |[M:9/8] x9 |[M:4/4] x8 |[M:5/4] x10 |[M:4/4] x8 | %37
[M:3/4] x6 |] %38

